X: 110
T: Missa Pro fidelibus defunctis / Tractus
N: Derived from Rue1024c-Missa_Pro_fidelibus_defunctis-Tractus.krn
C: Pierre de la Rue
%%abc-version 2.0
%%abcx-abcm2ps-target-version 5.9.1 (29 Sep 2008)
%%abc-creator hum2abc beta
%%abcx-conversion-date 2019/02/17 08:01:14
%%abc-edited-by Jesse Rodin
%%abc-edited-by Chris Gage 04-23-2013
%%abcx-initial-encoding-date 2013/08/01/
%%humdrum-veritas 3990843287
%%humdrum-veritas-data 2806912240
%%linebreak <none>
%%barnumbers 0
L: 1/4
M: 2/1
Q: 1/2=120
%%staves [1 2 3 4]
V: 1 clef=treble
V: 2 clef=treble-8
V: 3 clef=treble-8
V: 4 clef=bass
K: C
[V:1] G4G4 | 
[V:2] z8 | 
[V:3] z8 | 
[V:4] z8 | 
[V:1] A4B4- | 
[V:2] z8 | 
[V:3] z8 | 
[V:4] z8 | 
[V:1] B4A4 | 
[V:2] d4d4 | 
[V:3] z8 | 
[V:4] z8 | 
[V:1] G4A4- | 
[V:2] e4f4- | 
[V:3] z8 | 
[V:4] z8 | 
[V:1] A2A2c4- | 
[V:2] f4e4 | 
[V:3] z8 | 
[V:4] z8 | 
[V:1] c2B2G4 | 
[V:2] e2e2g4- | 
[V:3] z8 | 
[V:4] z8 | 
[V:1] B8 | 
[V:2] g2f2d4- | 
[V:3] z8 | 
[V:4] z8 | 
[V:1] A8 | 
[V:2] d4f4- | 
[V:3] z8 | 
[V:4] z8 | 
[V:1] z2d4c2- | 
[V:2] f4f2e2- | 
[V:3] z8 | 
[V:4] z8 | 
[V:1] c2B4B2 | 
[V:2] e4d4- | 
[V:3] z8 | 
[V:4] z8 | 
[V:1] A3Bc2B2- | 
[V:2] d2c4e2 | 
[V:3] z8 | 
[V:4] z8 | 
[V:1] Bcd2c2BA | 
[V:2] d2f3edc | 
[V:3] z8 | 
[V:4] z8 | 
[V:1] BAA4^G2 | 
[V:2] dcBAB4 | 
[V:3] z8 | 
[V:4] z8 | 
[V:1] A8 | 
[V:2] A8- | 
[V:3] z8 | 
[V:4] z8 | 
[V:1] z4A4 | 
[V:2] A8 | 
[V:3] z8 | 
[V:4] z8 | 
[V:1] A4A4 | 
[V:2] z4d4 | 
[V:3] z8 | 
[V:4] z8 | 
[V:1] B4B4 | 
[V:2] d4d4 | 
[V:3] z8 | 
[V:4] z8 | 
[V:1] G8- | 
[V:2] e4e4 | 
[V:3] z8 | 
[V:4] z8 | 
[V:1] G8- | 
[V:2] c4z2c2- | 
[V:3] z8 | 
[V:4] z8 | 
[V:1] G8- | 
[V:2] c2B2c2e2- | 
[V:3] z8 | 
[V:4] z8 | 
[V:1] G8 | 
[V:2] e2dcB2c2- | 
[V:3] z8 | 
[V:4] z8 | 
[V:1] z2G4F2 | 
[V:2] cGB2A4 | 
[V:3] z8 | 
[V:4] z8 | 
[V:1] G2_B4AG | 
[V:2] G8 | 
[V:3] z8 | 
[V:4] z8 | 
[V:1] F2G4^F2 | 
[V:2] z2G2A4 | 
[V:3] z8 | 
[V:4] z8 | 
[V:1] G4z2G2 | 
[V:2] B4c4- | 
[V:3] z8 | 
[V:4] z8 | 
[V:1] A4B4 | 
[V:2] c2BAG2B2 | 
[V:3] z8 | 
[V:4] z8 | 
[V:1] c4B4 | 
[V:2] A4G4 | 
[V:3] z8 | 
[V:4] z8 | 
[V:1] G4d4- | 
[V:2] z2g4f2 | 
[V:3] z8 | 
[V:4] z8 | 
[V:1] d4d4- | 
[V:2] g2G4F2 | 
[V:3] z8 | 
[V:4] z8 | 
[V:1] d2B2c4 | 
[V:2] G2g4f2 | 
[V:3] z8 | 
[V:4] z8 | 
[V:1] B2d4c2 | 
[V:2] g2G2A4 | 
[V:3] z8 | 
[V:4] z8 | 
[V:1] B2A3GE2 | 
[V:2] G2d4c2 | 
[V:3] z8 | 
[V:4] z8 | 
[V:1] F2DEFGA2- | 
[V:2] d4z2d2 | 
[V:3] z8 | 
[V:4] z8 | 
[V:1] ABc2ABc2- | 
[V:2] c2A2c4 | 
[V:3] z8 | 
[V:4] z8 | 
[V:1] cBABcBAG | 
[V:2] ABc2ABc2- | 
[V:3] z8 | 
[V:4] z8 | 
[V:1] A2G4^F2 | 
[V:2] cBAGA4 | 
[V:3] z8 | 
[V:4] z8 | 
[V:1] G8 ||  
[V:2] G8 ||  
[V:3] z8 ||  
[V:4] z8 ||  
[V:1]  [K:C] [K:clef=treble][M:2/1]z8 | 
[V:2]  [K:C] [K:clef=treble-8][M:2/1]z8 | 
[V:3]  [K:C] [K:clef=treble-8][M:2/1]G4B4 | 
[V:4]  [K:C] [K:clef=bass][M:2/1]z8 | 
[V:1] z8 | 
[V:2] z8 | 
[V:3] c8 | 
[V:4] C,4E,4 | 
[V:1] z8 | 
[V:2] z8 | 
[V:3] z2c4c2- | 
[V:4] F,8 | 
[V:1] z8 | 
[V:2] z8 | 
[V:3] c2d4c2- | 
[V:4] z2F,4F,2- | 
[V:1] z8 | 
[V:2] z8 | 
[V:3] c2B2G2A2- | 
[V:4] F,2G,4F,2- | 
[V:1] z8 | 
[V:2] z8 | 
[V:3] A2G2z2G2 | 
[V:4] F,2E,2C,2E,2 | 
[V:1] z8 | 
[V:2] z8 | 
[V:3] A4c4- | 
[V:4] D,4C,4 | 
[V:1] z8 | 
[V:2] z8 | 
[V:3] c8- | 
[V:4] z2C,4D,2 | 
[V:1] z8 | 
[V:2] z8 | 
[V:3] c4B4- | 
[V:4] E,2F,2G,4 | 
[V:1] z8 | 
[V:2] z8 | 
[V:3] B4d4 | 
[V:4] E,2F,2D,4 | 
[V:1] z8 | 
[V:2] z8 | 
[V:3] e8 | 
[V:4] C,8- | 
[V:1] z8 | 
[V:2] z8 | 
[V:3] c4A4 | 
[V:4] C,8 | 
[V:1] z8 | 
[V:2] z8 | 
[V:3] z4d4 | 
[V:4] D,8 | 
[V:1] z8 | 
[V:2] z8 | 
[V:3] d2B4G2 | 
[V:4] z4G,4 | 
[V:1] z8 | 
[V:2] z8 | 
[V:3] G4z2G2 | 
[V:4] G,2E,4C,2 | 
[V:1] z8 | 
[V:2] z8 | 
[V:3] A2A2c4- | 
[V:4] C,4z2C,2- | 
[V:1] z8 | 
[V:2] z8 | 
[V:3] c4c4 | 
[V:4] C,D,E,2F,4 | 
[V:1] z8 | 
[V:2] z8 | 
[V:3] z2c3Bc2 | 
[V:4] F,4F,4 | 
[V:1] z8 | 
[V:2] z8 | 
[V:3] A3Bc2d2- | 
[V:4] z2F,3E,F,2 | 
[V:1] z8 | 
[V:2] z8 | 
[V:3] dcd2B4 | 
[V:4] D,2G,3F,G,2 | 
[V:1] z8 | 
[V:2] z8 | 
[V:3] G4z2c2- | 
[V:4] E,4C,4- | 
[V:1] z8 | 
[V:2] z8 | 
[V:3] c2A2B2c2 | 
[V:4] C,4z2F,2- | 
[V:1] z8 | 
[V:2] z8 | 
[V:3] d3cB2A2 | 
[V:4] F,2D,2E,2F,2 | 
[V:1] z8 | 
[V:2] z8 | 
[V:3] G2c4B2 | 
[V:4] G,3F,E,2D,2 | 
[V:1] z8 | 
[V:2] z8 | 
[V:3] c2A2B4 | 
[V:4] C,2F,4E,2 | 
[V:1] z8 | 
[V:2] z8 | 
[V:3] A2d4c2 | 
[V:4] F,2D,2F,2E,2 | 
[V:1] z8 | 
[V:2] z8 | 
[V:3] d3cBABA | 
[V:4] D,2G,3F,G,F, | 
[V:1] z8 | 
[V:2] z8 | 
[V:3] B2G4^F2 | 
[V:4] G,2G,,2A,,4 | 
[V:1] z8 ||  
[V:2] z8 ||  
[V:3] G8 ||  
[V:4] G,,8 ||  
[V:1]  [K:C] [K:clef=treble][M:2/1]G8- | 
[V:2]  [K:C] [K:clef=treble-8][M:2/1]d8- | 
[V:3]  [K:C] [K:clef=treble-8][M:2/1]B8- | 
[V:4]  [K:C] [K:clef=bass][M:2/1]G,8- | 
[V:1] G4A4 | 
[V:2] d4f4 | 
[V:3] B4c4 | 
[V:4] G,4F,4 | 
[V:1] A8 | 
[V:2] f8 | 
[V:3] c8 | 
[V:4] F,8 | 
[V:1] A4A4- | 
[V:2] f4f4- | 
[V:3] c4c4- | 
[V:4] F,4F,4- | 
[V:1] A8- | 
[V:2] f4f4 | 
[V:3] c4c4 | 
[V:4] F,4F,4 | 
[V:1] A4A4 | 
[V:2] f4f4- | 
[V:3] c4d4- | 
[V:4] F,4D,4- | 
[V:1] A4c4- | 
[V:2] f4a4- | 
[V:3] d4c4 | 
[V:4] D,2C,2A,,4 | 
[V:1] c2B2A4 | 
[V:2] a2g2f4 | 
[V:3] A4c4- | 
[V:4] F,8 | 
[V:1] G8 | 
[V:2] e8 | 
[V:3] c4B2A2 | 
[V:4] C,8- | 
[V:1] z4G4 | 
[V:2] z4e4 | 
[V:3] G8 | 
[V:4] C,8 | 
[V:1] A4c4- | 
[V:2] f4e4 | 
[V:3] z8 | 
[V:4] z8 | 
[V:1] c2BAB4 | 
[V:2] d8 | 
[V:3] z4G4 | 
[V:4] z4B,,4 | 
[V:1] E8 | 
[V:2] c4A4 | 
[V:3] A4c4- | 
[V:4] C,8 | 
[V:1] z2E4F2 | 
[V:2] G2c4d2 | 
[V:3] c8- | 
[V:4] C,8 | 
[V:1] G2A4G2 | 
[V:2] e2f4e2 | 
[V:3] c4c4 | 
[V:4] C,8 | 
[V:1] A2c4B2 | 
[V:2] f8 | 
[V:3] c4c4- | 
[V:4] F,8- | 
[V:1] A4G4- | 
[V:2] f4e2d2- | 
[V:3] c4B4- | 
[V:4] F,4G,4 | 
[V:1] G4^F4 | 
[V:2] d2B2A4 | 
[V:3] B4d4 | 
[V:4] D,8 | 
[V:1] G8- | 
[V:2] z4c4 | 
[V:3] e8- | 
[V:4] C,8- | 
[V:1] G8 | 
[V:2] c6c2 | 
[V:3] e8 | 
[V:4] C,8 | 
[V:1] z8 | 
[V:2] G8 | 
[V:3] z4d4 | 
[V:4] z8 | 
[V:1] z8 | 
[V:2] z4g4 | 
[V:3] d6d2 | 
[V:4] G,4G,4- | 
[V:1] z8 | 
[V:2] g6g2 | 
[V:3] B8 | 
[V:4] G,2G,2E,4- | 
[V:1] z8 | 
[V:2] e4c4 | 
[V:3] e6d2 | 
[V:4] E,4A,4 | 
[V:1] z4G4 | 
[V:2] g8 | 
[V:3] B4c2e2- | 
[V:4] G,4E,2C,2 | 
[V:1] G6G2 | 
[V:2] e4d4 | 
[V:3] edc4B2 | 
[V:4] E,3F,G,4 | 
[V:1] E8 | 
[V:2] c4z2e2 | 
[V:3] c4z2c2 | 
[V:4] C,8 | 
[V:1] A4G4 | 
[V:2] e2e2e4 | 
[V:3] c2c2c4 | 
[V:4] z2C,2C,2C,2 | 
[V:1] z2G2G2G2 | 
[V:2] d6ed | 
[V:3] B8 | 
[V:4] G,,8 | 
[V:1] G8 | 
[V:2] e8- | 
[V:3] G8- | 
[V:4] C,8 | 
[V:1] G4A2c2- | 
[V:2] e8 | 
[V:3] G8 | 
[V:4] C,8 | 
[V:1] c2B2c3B | 
[V:2] d4c4 | 
[V:3] z4z2c2- | 
[V:4] z8 | 
[V:1] G4c4 | 
[V:2] z4A4 | 
[V:3] c2B2c4 | 
[V:4] z8 | 
[V:1] B8 | 
[V:2] G4G4 | 
[V:3] d8- | 
[V:4] z2G,,2G,,2G,,2 | 
[V:1] z2A2A2A2 | 
[V:2] A4F4- | 
[V:3] d8 | 
[V:4] D,4D,4- | 
[V:1] B4A4 | 
[V:2] F8 | 
[V:3] z2d2d2d2 | 
[V:4] D,4D,4 | 
[V:1] d8 | 
[V:2] G4B2c2 | 
[V:3] B4G4 | 
[V:4] G,,8 | 
[V:1] B4G4 | 
[V:2] d4e4 | 
[V:3] z8 | 
[V:4] z8 | 
[V:1] z2d4c2 | 
[V:2] d4e4 | 
[V:3] A8- | 
[V:4] D,4A,,4 | 
[V:1] d3cA2c2- | 
[V:2] z2d4c2 | 
[V:3] A8- | 
[V:4] D,4F,3G, | 
[V:1] c2B2A2G2 | 
[V:2] A4c4 | 
[V:3] A8- | 
[V:4] A,2G,2F,2E,2 | 
[V:1] F2G4^F2 | 
[V:2] d2e2d4 | 
[V:3] A8 | 
[V:4] D,2C,2D,4 | 
[V:1] G4z2G2 | 
[V:2] z4d4 | 
[V:3] G4z2d2- | 
[V:4] G,,8 | 
[V:1] A4B4 | 
[V:2] e4f4- | 
[V:3] d2c2d4 | 
[V:4] z8 | 
[V:1] c3BA2G2 | 
[V:2] f2e4d2 | 
[V:3] A2c4B2 | 
[V:4] z8 | 
[V:1] F2G4^F2 | 
[V:2] c2B2c4 | 
[V:3] A2G2A4 | 
[V:4] z8 | 
[V:1] G8- | 
[V:2] d8 | 
[V:3] G8- | 
[V:4] G,,8- | 
[V:1] G8 |]  
[V:2] d8 |]  
[V:3] G8 |]  
[V:4] G,,8 |]  



